X:1
T:Title
%%score ( 1 2 ) { 3 | 4 }
L:1/8
Q:1/4=100
M:4/4
K:D
V:1 treble nm="Grand Piano, Soprano"
V:2 treble 
V:3 bass nm="Choir Pad, The Son Hath Made Me Free"
V:4 bass 
V:1
 z2 d6 | z2 z A- A3- A/ z/ | z2 B6 | z2 A6 | z2 d6 | z2 z A- A3- A/ z/ | z2 A6 | z2 d6 | %8
 z2 [GB]2 [GB]2 [DG][DB] | [DA][CG][DF][DA] [Fd][Fd][Gd][Fd] | z2 [Ec]2 [Ec]2 [CE][DF] | %11
 [FA][EG] [DF]2 [GB][GB] [FA]2 | z2 [Fd]2 [Fd]2 [Fd][Ec] | [DB][Ec][Fd][FA] [FA][FA][GB][FA] | %14
 z2 [FA]2 [FA]2 [EA][EA] | z2 d6 | z8 |] %17
V:2
 FA F2 F2 F[GB] | [FA][DF][DB]D FFFF | FA G2 G2 G[DA] | (3[D-B][DA][DF] C2 CD E2 | FA F2 F2 F[GB] | %5
 [FA][DF][DB]D FFFF | BB F2 F2 E[EA] | [GB][Gc] F2 GG F2 | x8 | x8 | x8 | x8 | x8 | x8 | x8 | %15
 [GB][Gc]FF G=F ^F2- | F4 z4 |] %17
V:3
 z2 A,2 A,2 A,D | DA,G,F,[K:treble] DDDD | z2 D2 D2 DD | (3:2:2D2[K:bass] A, A,2 A,A, A,2 | %4
 z2 A,2 A,2 A,D | DA,G,F,[K:treble] DDDD | z2 D2 D2 CC | EE D2[K:bass] B,B, A,2 | %8
 (3C,E,F, D2 D2 B,G, | A,A,A,F, A,A,B,A, | C,D, A,2 A,2 A,A, | A,A, A,2 DD D2 | F,E, A,2 A,2 A,A, | %13
 F,A,A,[K:treble]D DDDD | F,G, D2 D2 C[K:treble]C | EEDA,[K:bass] B,^G, A,2- | A,4 z4 |] %17
V:4
 z2 D,2 D,2 D,D, | D,D,D,D, D,D,D,D, | z2 G,2 G,2 G,G, | (3G,F,D, A,,2 A,,B,, C,2 | %4
 z2 D,2 D,2 D,D, | D,D,D,D, D,D,D,D, | z2 D,2 D,2 A,,A,, | A,,A,, D,6 | z2 G,6 | %9
 F,E,D,D,- D,3- D,/ z/ | z2 A,,4- A,,A,, | B,,C, D,6 | z2 D,4- D,A,, | B,,A,,D,D,- D,3- D,/ z/ | %14
 z2 A,4- A,A, | C,C, D,6 | z8 |] %17

